X:1
T:Title
%%score ( 1 2 )
L:1/8
M:4/4
K:Eb
V:1 alto nm="Viola" snm="Vla."
V:2 alto 
V:1
 E,eBG BEGB, | E,eBG BEGB, | E,_dBG BEGB, | E,_dBG BEGB, | E,cAE ACEA, | E,cAE ACEA, | %6
 E,AFD FB,DA, | E,AFD FB,DA, | E,GEB, EG,B,E, | D,GEB, EG,B,D, | C,ecG cEGC | B,ecG cEGB, | %12
 =A,ecF =ACEA, | F,ec=A cFAE | B,dBF BDFB, | A,dBF BDFA, | G,_dBE GB,EG, | E,_dBG BEG_D | %18
 A,cAE ACEA, | G,cAE ACEG, | F,AD=B, DA,B,F, | E,AFC FA,CE, | D,AF=B, FG,A,D, | C,AFC FA,CF, | %24
 =B,dAF ADFB, | G,d=BF ADF=B, | C,ecG cEGC | C,ecG cEGC | B,=ecG c=EGC | B,=ecG c=EGB, | %30
 A,fcA cFA=E | FcA=E FCFA, | =E,_dBG B=EGC | _DBG=E GB,D=E, | F,AFC FA,CF, | A,AFC FA,CE, | %36
 D,AFD FB,DF | AD,F,B, DB,AF | E,GEB, EG,B,E, | G,B,EB, GEBG | c=A,C_G =AGcA | eG,CE GEcG | %42
 e_G,=A,C EC_GC | =AD_GA cAdA | G,BGD GB,DG, | F,BGD GB,DG, | E,BGD GB,DG, | D,BGD GB,DG, | %48
 _D,2 z2 z z/ C,/ =E/_G/=G/=A/ | B/=A/G/_G/ =G/=E/_D/=D/ E/_G/=G/A/ B/A/G/A/ | %50
 B/c/d/c/ e/d/c/B/ =A/B/c/B/ A/G/_G/=G/4 z/4 | D,c=A_G ADG=A, | D,c=A_G ADG=A, | D,BGD GB,DG, | %54
 D,BGD GB,DG, | D,/_d/B/=A/ B/d/B/A/ B/d/B/A/ B/d/B/A/4 z/4 | %56
 G/B/G/_G/ =G/B/G/_G/ =G/B/G/_G/ =G/B/G/_G/4 z/4 | %57
 =E/G/E/D/ _D/E/D/=B,/ =A,/D/A,/G,/ _G,/A,/G,/=E,/4 z/4 | %58
 [D,=A,_Ge]2 z/ d/c/B/ =A/=G/_G/=E/ D/C/B,/A,/4 z/4 | %59
 [D,B,Gd]-[D,B,Gd]/c/ B/=A/B/G/ [GB]-[GB]/A/ G/_G/=G/4 z/4 _D/4-D/8 z/8 | %60
 [G=A]-[GA]/A/ G/_G/=G/=E/ _G2- G=G | G,BGD GB,D_G, | G,B,DG BGdF | G,_dBG B=EGB, | %64
 _DG,B,=E GE_dE | A,cAF ACFA, | CFAF cFdF | =A,ec=A cE_GC | E=A,CE _G=Ace | %69
 B,d =B/_B/=A Bd =B/_B/A | Bc B/A/G Ac B/A/G | AB A/_G/F GB A/G/F | _GG =E/_E/D EG =E/_E/D | %73
 E=B,EA =BAeB | A=BAE =B,A,FA, | C,=A,_GD E/G/E/D/ E/G/E/D/4 z/4 | %76
 E/=A/_G/F/ G/A/G/F/ G/c/G/F/ G/e/G/F/4 z/4 | _GB,EG BGeB | _GEBG EB,GE | %79
 [A,=E=B]2 z/ _G/E/G/ A/=A/_A/=A/ B/A/B/A/ | A/_G/A/G/ =E/_E/D/E/ B,2- B,-[B,E] | E,eBG BEGB, | %82
 E,eBG BEGB, | E,_dBG BEGB, | E,_dBG BEGB, | E,cAE ACEA, | E,cAE ACEA, | %87
 D2 z/ C/B,/C/ D/E/F/G/ A/F/G/A/ | D/E/F/B,/ C/D/E/F/ G/A/B/c/ d/c/e/d/4 z/4 | %89
 d2 z/ B/A/G/ F/E/D/C/ B,/A,/G,/F,/4 z/4 | [E,B,Ge]2 z2 z4 |] %91
V:2
 x8 | x8 | x8 | x8 | x8 | x8 | x8 | x8 | x8 | x8 | x8 | x8 | x8 | x8 | x8 | x8 | x8 | x8 | x8 | %19
 x8 | x8 | x8 | x8 | x8 | x8 | x8 | x8 | x8 | x8 | x8 | x8 | x8 | x8 | x8 | x8 | x8 | x8 | x8 | %38
 x8 | x8 | x8 | x8 | x8 | x8 | x8 | x8 | x8 | x8 | x8 | x8 | x8 | x8 | x8 | x8 | x8 | x8 | x8 | %57
 x8 | x8 | z4 _D2 z2 | D2 z2 z4 | x8 | x8 | x8 | x8 | x8 | x8 | x8 | x8 | x8 | x8 | x8 | x8 | x8 | %74
 x8 | x8 | x8 | x8 | x8 | x8 | z4 D2- D z | x8 | x8 | x8 | x8 | x8 | x8 | x8 | x8 | x8 | x8 |] %91

